X:1
T:Title
%%score { ( 1 3 5 ) | ( 2 4 ) }
L:1/8
Q:1/4=100
M:4/4
K:Ab
V:1 treble nm="Grand Piano"
V:3 treble 
V:5 treble 
V:2 bass 
V:4 bass 
V:1
 [CA]2 [CE]2 [DF]2 [EG]2 | [CA]3 [DB] [Ec]2 [CA]2 | [DF]2 [EA]2 [EB]2 [Ec]2 | B2 E2 [Ec]4 | %4
w: C.~C.~Case * * *||||
 [CA]2 [CE]2 [DF]2 [DG]2 | [CA]3 [DB] [Ec]2 [CA]2 | [DF]2 [Fd]2 [Ec]2 B2 |[M:3/4] z2 G2 z2 | %8
w: ||||
[M:1/4] E>E |[M:4/4] c6 z2 | z2 D>D D2 [FB]>[Fc] | [Fd]2 [DF][DF] E2 d2 | [Ec]6[K:bass] z2 | %13
w: |||||
 c6 z2 | z2 D>D D2 [FB]>[Fc] | [Fd]2 [DF][DF] E2 B2 |[M:3/4] A6[K:bass] |[M:1/4][K:treble] c>e | %18
w: |||||
[M:4/4] a6 z2 | c2 B2 [CA]4 |] %20
w: ||
V:2
 [A,,A,]2 [A,,A,]2 [D,A,]2 [B,,E,]2 | [A,,E,]3 [A,,A,] [A,,A,]2 [A,,A,]2 | %2
 [D,A,]2 [C,A,]2 [B,,G,]2 [A,,A,]2 | [E,G,E]2 [E,G,]2 [A,,A,]4 | %4
 [A,,A,]2 [A,,A,]2 [D,A,]2 [B,,E,]2 | [A,,E,]3 [A,,A,] [A,,A,]2 [A,,A,]2 | %6
 [D,A,]2 [B,,G,]2 [C,A,]2 [D,F,D]2 |[M:3/4] [E,C]2 .[E,B,E]2 [A,,A,]2 |[M:1/4] z2 | %9
[M:4/4] z2 [A,,A,]>[A,,A,] [A,,A,]2 z2 | z2 [D,A,]>[D,A,] [D,A,]2 [D,A,]>[C,=A,] | %11
 [B,,B,]2 [B,,B,][B,,A,] [E,G,]2 [E,B,E]2 | A,4 z4 | z2 [A,,A,]>[A,,A,] [A,,A,]2 z2 | %14
 z2 [D,A,]>[D,A,] [D,A,]2 [D,B,]>[C,=A,] | [B,,B,]2 [B,,B,][B,,A,] [E,G,B,]2 [E,G,D]2 | %16
[M:3/4][K:treble] [A,C]6 |[M:1/4] z2 |[M:4/4] z2 [DF]2[K:bass] [A,E]2 z2 | z2 [E,G,D]2 [A,,A,]4 |] %20
V:3
 x8 | x8 | x8 | x8 | x8 | x8 | x8 |[M:3/4] A2 z D [CA]2 |[M:1/4] x2 |[M:4/4] z2 E>E E2 B>A | %10
 F6 z2 | x8 | z2[K:bass] C,>E, A,2 E>E | z2 E>E E2 B>A | F6 z2 | x8 | %16
[M:3/4] z2[K:bass] E,>C, A,,2 |[M:1/4][K:treble] x2 |[M:4/4] z2 d2 z ecA | x8 |] %20
V:4
 x8 | x8 | x8 | x8 | x8 | x8 | x8 |[M:3/4] x6 |[M:1/4] x2 |[M:4/4] x8 | x8 | x8 | A,,2 z2 z4 | x8 | %14
 x8 | x8 |[M:3/4][K:treble] x6 |[M:1/4] x2 |[M:4/4] x4[K:bass] x4 | x8 |] %20
V:5
 x8 | x8 | x8 | x8 | x8 | x8 | x8 |[M:3/4] x6 |[M:1/4] x2 |[M:4/4] x8 | x8 | x8 | x2[K:bass] x6 | %13
 x8 | x8 | x8 |[M:3/4] x2[K:bass] x4 |[M:1/4][K:treble] x2 |[M:4/4] z4 c2 z2 | x8 |] %20

